X:1
T:Torn
C:Anne Previn, Phil Thornalley, Scott Cutler
L:1/8
M:2/2
K:F
V:1 treble nm="Alto Saxophone" snm="Alto Sax."
V:1
"^Moderate Rock""Fpedal5" z8 | z8 |"Fsus4" z8 | z8 |"F" z8 | z8 |"C7sus4/F" z8 | z8 |:"F" z8 | %9
w: |||||||||
w: |||||||||
w: |||||||||
zC CC C C2(F | F) C2(C C2>)(B,2 | B,) A,2A, A,4 |"Am" z8 |zA, A,2 A, C2(C | C2) C2 C2 A,(C | %15
w: * * I thougt I saw|_ a man _ brought|_ to life. _||* * He was warm,|_ he came a- round|
w: Well, you _ could- n't be|_ that man _ I|_ a- dored. _||You don't seem to know|_ or seem to care|
w: * * * So, I guess|_ the for- tune tell-|_ er's right. _||* I should- 've seen|_ just what was there|
 C2)zF, C D2(_A, |"Bb7" A,) G,2(G, G,2) z2 | z4 z2 CC | F2 C2 C C2(C |1 C)A, D4 z2 :|"" %20
w: _ like he was dig-|_ ni- fied. _|_ He|showed me what it was|_ to cry.|
w: _ _ what your heart|_ is for. _|_ Well,|I don't know him an-||
w: _ and not some hol-|_ y light. _|But you|crawled be- neath my veins||
"^2 , 3" CC D4zF, |"Dm" A G2(G G2)zC || A2 G(G G2) z2 |"C"zC A2 G A2G | A2 G2 G4 |"Am" z4 z2 A2 | %26
w: * y- more. There's|noth- ing where _ he|used to lie. _|My con- ver- sa- tion|has run dry.|That's|
w: * and now _|I don't care, _ I|have no luck. _|_ I don't miss it|all that much.|There's|
w: ||||||
 A2 AA (B2 A2) |"C" z4 z2 C(B | B) B2(B B) A2(A |"F" A4)z2z(A | A) A2A G2 (G2 |"C" G2)z2z2z(G | %32
w: what's go- ing on. _|_ Noth-|_ ing's fine, _ I'm torn.|_ I'm|_ all out of faith,|_ this|
w: just so man- y things|that I|_ can't touch, _ _ _|_|||
w: ||||||
 G) G2(A A) F2(F |"Dm" D4)z2zC | G2 G(G G) F2(B, |"Bb" B,2) z2 B,2 A,(B, | B,) A,2(B, B,) A,2(A, | %37
w: _ is how _ I feel.|_ I'm|cold and I _ am shamed|_ ly- ing na-|_ ked on _ the floor.|
w: |||||
w: |||||
"F" A,2) z2 z2 G,(A | A) A2A G2 (G2 |"C" G2)z2z2z(G | G) G2(A A) F2(F |"Dm" D4)z2zA, | %42
w: _ Il- lu-|_ sion nev- er changed|_ in-|* to some- _ thing real.|_ I'm|
w: |||||
w: |||||
 A2 G(G G) F2(A |"Bb" A) G2(G G) F2(A | A) G2(F F) G2(A |"F" A4)z2z(A | A) A2A G2 (G2 | %47
w: wide * wake _ and I|_ can see _ the per-|_ fect sky _ is torn.|_ You're|_ a lit- tle late.|
w: |||||
w: |||||
"C" G2)z2z2zG | G G2G F2 (A2 |"Dm" GF D6) | z8 |"Bb" z8O | z4"^D.S. al Coda" z2 z2 ||O z8 | %54
w: _ I'm|_ al- read- y torn.|_ _ _|||||
w: |||||||
w: |||||||
"Dm" (F2 E(D D4)) | z8"C" |"Bb" z8 | z8 |"Dm" (A8 | (A8) | (A8) | A2) z2 (A4 |"F" (F8 | F8) | %64
w: Torn. _ _ _||||Ooh,|_||* ooh.|_||
w: ||||||||||
w: ||||||||||
"C" (G8 | G6))zD |"Dm" A G2(G G2)zC | A2 G(G G2) z2 |"C"zC A2 G A2G | A2 G2 G4 |"Am" z4 z2 A2 | %71
w: |* There's|noth- ing where _ he|used to lie. _|My in- spi- ra- tion|has run dry.|That's|
w: |||||||
w: |||||||
 A2 AA (B2 A2) |"C"z4z2z(B | B) B2(B B) A2(A |:"F" A4)z2z(A | A) A2A G2 (G2 |"C" G2)z2z2z(G | %77
w: what's go- ing on. _|Noth-|_ ing's right, _ I'm torn.|_ I'm|_ all out of faith,|_ this|
w: ||||||
w: ||||||
 G) G2(A A) F2(F |"Dm" D4)z2zC | A2 G(G G) F2(B, |"Bb" B,2) z2 B,2 A,(B, | B,) A,2(B, B,) A,2(A, | %82
w: * is how _ I feel.|_ I'm|cold and I _ am shamed,|_ ly- ing na-|_ ked on _ the floor.|
w: ||* * I'm _ a- shamed,|_ bound and bro-|_ ken on _ the floor.|
w: |||||
"F" A,2) z2 z2 C(A | A) A2A G2 (G2 |"C" G2)z2z2z(G |1 G) G2(A A) F2(F |"Dm" D4)z2zA, | %87
w: _ Il- lu-|_ sion nev- er changed|_ in-|_ to some- _ thing real.|_ I'm|
w: _ _ You're|_ a lit- tle late.|_ I'm|||
w: |||||
 A2 G(G G) F2(A |"Bb" A) G2(G G) F2(A | A) G2(F"Bb/C" F) G2A :|2 G G2G F2 (A2 |"Dm" GF D4) z2 || %92
w: wide a- wake _ and I|_ can see _ the per-|_ fect sky _ is torn.|* al- read- y torn.|_ _ _|
w: |||||
w: |||||
 z8 |"Bb" z8 | z8 |"Dm" (F2 ED D4) | z8 |"C" z8 | z8 | z2 (A4 F2) | z8 |: %101
w: |||Torn. _ _ _||||Torn. _||
w: |||||||||
w: |||||||||
"_Guitar solo- ad lib.""F" z8 | z8 |"C" z8 | z8 |"Dm" z8 | z8 |"Bb" z8 | %108
w: |||||||
w: |||||||
w: |||||||
"_Repeat and Fade" z8"Bb/C" :| %109
w: |
w: |
w: |

